Blog/public/Images/react_logo.svg

<svg xmlns="http://www.w3.org/2000/svg"  viewBox="0 0 50 50" fill = "white"><path d="M 34.554688 3.984375 C 33.775003 3.9581582 32.958884 4.0940926 32.140625 4.359375 C 30.504109 4.889941 28.789203 5.9238848 27.029297 7.3554688 C 26.339589 7.9165071 25.643623 8.5578288 24.945312 9.2382812 C 24.262398 8.5751039 23.580733 7.9490442 22.90625 7.4003906 C 21.147758 5.9699557 19.4375 4.9375672 17.804688 4.4082031 C 16.171878 3.8788386 14.547223 3.8624356 13.212891 4.6328125 C 11.878558 5.4031893 11.080619 6.8173558 10.722656 8.4960938 C 10.364693 10.174832 10.402173 12.173992 10.761719 14.412109 C 10.886606 15.189511 11.066671 16.005078 11.269531 16.835938 C 10.507095 17.067004 9.7666767 17.309955 9.0800781 17.578125 C 7.0079817 18.387438 5.2934468 19.355663 4.0449219 20.507812 C 2.7963969 21.659962 1.9902344 23.058304 1.9902344 24.59375 C 1.9902344 26.129196 2.7963969 27.525585 4.0449219 28.677734 C 5.2934468 29.829884 7.0079817 30.800062 9.0800781 31.609375 C 9.8142516 31.896126 10.609118 32.154326 11.429688 32.398438 C 11.134531 33.501278 10.895394 34.571467 10.732422 35.585938 C 10.372587 37.825853 10.334588 39.825265 10.693359 41.507812 C 11.052134 43.19036 11.850478 44.612534 13.191406 45.386719 C 14.532336 46.160905 16.164264 46.141894 17.800781 45.611328 C 19.437297 45.080762 21.15025 44.048772 22.910156 42.617188 C 23.593512 42.061316 24.284757 41.427206 24.976562 40.753906 C 25.671663 41.430886 26.366333 42.068604 27.052734 42.626953 C 28.811227 44.057387 30.523438 45.089776 32.15625 45.619141 C 33.789061 46.148505 35.411762 46.164908 36.746094 45.394531 C 38.080426 44.624154 38.878366 43.209988 39.236328 41.53125 C 39.59429 39.852512 39.554857 37.85335 39.195312 35.615234 C 39.031899 34.598012 38.792614 33.526227 38.496094 32.419922 C 39.343769 32.169866 40.163744 31.904721 40.919922 31.609375 C 42.992018 30.800062 44.706553 29.829884 45.955078 28.677734 C 47.203603 27.525585 48.009766 26.129196 48.009766 24.59375 C 48.009766 23.058304 47.203603 21.659963 45.955078 20.507812 C 44.706553 19.355663 42.992018 18.387438 40.919922 17.578125 C 40.22347 17.306107 39.471688 17.059992 38.697266 16.826172 C 38.901775 15.990221 39.083345 15.168805 39.208984 14.386719 C 39.568819 12.146804 39.606825 10.145439 39.248047 8.4628906 C 38.889279 6.7803434 38.088976 5.3601244 36.748047 4.5859375 C 36.077582 4.1988452 35.334372 4.0105918 34.554688 3.984375 z M 34.462891 6.0195312 C 34.952154 6.03291 35.369535 6.1493386 35.726562 6.3554688 C 36.440618 6.7677287 36.968419 7.5700924 37.25 8.890625 C 37.531581 10.211156 37.521848 11.99533 37.189453 14.064453 C 37.075647 14.772878 36.910402 15.52369 36.722656 16.292969 C 34.677708 15.800829 32.436969 15.435424 30.048828 15.220703 C 28.849094 13.558465 27.615953 12.046374 26.373047 10.703125 C 27.030182 10.061662 27.683063 9.4617259 28.320312 8.9433594 C 29.946026 7.6209332 31.485126 6.7210962 32.769531 6.3046875 C 33.411734 6.0964824 33.973627 6.0061525 34.462891 6.0195312 z M 15.486328 6.0253906 C 15.978419 6.0116533 16.541491 6.1017415 17.185547 6.3105469 C 18.473657 6.7281576 20.015451 7.6275969 21.642578 8.9511719 C 22.266889 9.4590141 22.905452 10.045872 23.548828 10.671875 C 22.296955 12.025781 21.055175 13.553705 19.847656 15.230469 C 17.468002 15.449155 15.235261 15.818024 13.199219 16.3125 C 13.012686 15.546898 12.84964 14.799095 12.736328 14.09375 C 12.403642 12.02283 12.39534 10.236451 12.677734 8.9121094 C 12.960128 7.5877677 13.492238 6.7813032 14.212891 6.3652344 C 14.573216 6.1572002 14.994237 6.0391279 15.486328 6.0253906 z M 24.976562 12.142578 C 25.791064 13.028975 26.606064 13.9993 27.414062 15.042969 C 26.620033 15.009861 25.816288 14.990234 25 14.990234 C 24.167457 14.990234 23.34841 15.010498 22.539062 15.044922 C 23.347352 14.000306 24.16175 13.029737 24.976562 12.142578 z M 25 17.009766 C 26.359894 17.009766 27.685348 17.065647 28.974609 17.160156 C 29.86173 18.434311 30.728648 19.786055 31.554688 21.216797 C 32.280504 22.473948 32.937328 23.729163 33.535156 24.96875 C 32.931017 26.224782 32.263184 27.496972 31.527344 28.771484 C 30.879609 29.893393 30.20319 30.958949 29.515625 31.986328 C 28.059313 32.10805 26.550303 32.175781 25 32.175781 C 23.412375 32.175781 21.869462 32.104031 20.380859 31.976562 C 19.704742 30.963955 19.039735 29.912587 18.402344 28.808594 C 17.668186 27.536996 17.003577 26.269079 16.400391 25.015625 C 17.006106 23.755092 17.673701 22.47818 18.412109 21.199219 C 19.233818 19.775977 20.098207 18.432055 20.980469 17.164062 C 22.283609 17.067424 23.62445 17.009766 25 17.009766 z M 31.550781 17.410156 C 33.198531 17.615819 34.745652 17.90154 36.185547 18.244141 C 35.758129 19.645287 35.231654 21.108808 34.59375 22.619141 C 34.179567 21.820719 33.750599 21.019585 33.287109 20.216797 C 32.725727 19.244455 32.142026 18.315962 31.550781 17.410156 z M 18.34375 17.425781 C 17.764654 18.315097 17.194836 19.224578 16.644531 20.177734 C 16.175094 20.990823 15.737221 21.802736 15.318359 22.611328 C 14.68596 21.110075 14.162654 19.654877 13.738281 18.261719 C 15.168002 17.918363 16.706766 17.633813 18.34375 17.425781 z M 38.164062 18.775391 C 38.872944 18.989877 39.557566 19.21371 40.185547 19.458984 C 42.0957 20.205046 43.60665 21.088493 44.585938 21.992188 C 45.565224 22.895882 45.990234 23.757696 45.990234 24.59375 C 45.990234 25.429804 45.565225 26.291619 44.585938 27.195312 C 43.60665 28.099007 42.0957 28.982454 40.185547 29.728516 C 39.487698 30.001079 38.72096 30.248243 37.923828 30.482422 C 37.355199 28.723643 36.629408 26.888772 35.765625 25.015625 C 36.758785 22.865083 37.561088 20.768289 38.164062 18.775391 z M 11.802734 18.785156 C 12.398795 20.758095 13.190852 22.834207 14.169922 24.962891 C 13.30047 26.846955 12.571087 28.692254 12 30.460938 C 11.23096 30.232919 10.490212 29.992451 9.8144531 29.728516 C 7.9042995 28.982454 6.39335 28.099007 5.4140625 27.195312 C 4.434775 26.291618 4.0097656 25.429804 4.0097656 24.59375 C 4.0097656 23.757696 4.434775 22.895882 5.4140625 21.992188 C 6.39335 21.088493 7.9042995 20.205046 9.8144531 19.458984 C 10.432774 19.217483 11.105915 18.996837 11.802734 18.785156 z M 25 20 C 22.250421 20 20 22.250421 20 25 C 20 27.749579 22.250421 30 25 30 C 27.749579 30 30 27.749579 30 25 C 30 22.250421 27.749579 20 25 20 z M 25 22 C 26.668699 22 28 23.331301 28 25 C 28 26.668699 26.668699 28 25 28 C 23.331301 28 22 26.668699 22 25 C 22 23.331301 23.331301 22 25 22 z M 34.619141 27.363281 C 35.143596 28.604493 35.599462 29.819048 35.982422 30.990234 C 34.779808 31.269089 33.499292 31.504052 32.152344 31.689453 C 32.540071 31.070779 32.922982 30.44057 33.296875 29.792969 C 33.765554 28.981192 34.200846 28.17048 34.619141 27.363281 z M 15.341797 27.365234 C 15.762305 28.177437 16.200272 28.991753 16.671875 29.808594 C 17.041066 30.448052 17.418053 31.072363 17.800781 31.683594 C 16.457817 31.497372 15.181231 31.261605 13.982422 30.982422 C 14.363652 29.81481 14.819744 28.602796 15.341797 27.365234 z M 13.40625 32.923828 C 15.216074 33.352568 17.177716 33.681912 19.257812 33.896484 C 20.646655 35.905245 22.092677 37.70929 23.548828 39.287109 C 22.897813 39.921859 22.252566 40.517583 21.621094 41.03125 C 19.99538 42.353677 18.454326 43.251559 17.169922 43.667969 C 15.885516 44.084378 14.926946 44.029446 14.212891 43.617188 C 13.498835 43.204927 12.972987 42.402563 12.691406 41.082031 C 12.409825 39.761499 12.417606 37.979279 12.75 35.910156 C 12.900793 34.971492 13.12615 33.966374 13.40625 32.923828 z M 36.560547 32.931641 C 36.842786 33.979991 37.069087 34.989811 37.220703 35.933594 C 37.553389 38.004513 37.56169 39.788939 37.279297 41.113281 C 36.996903 42.437623 36.466746 43.24604 35.746094 43.662109 C 35.025442 44.078178 34.059594 44.13441 32.771484 43.716797 C 31.483374 43.299186 29.941578 42.397794 28.314453 41.074219 C 27.678439 40.556858 27.028726 39.958258 26.373047 39.318359 C 27.838664 37.73459 29.295467 35.920758 30.693359 33.900391 C 32.778701 33.687251 34.745791 33.359875 36.560547 32.931641 z M 21.867188 34.101562 C 22.893951 34.157518 23.934244 34.195312 25 34.195312 C 26.030504 34.195312 27.037063 34.159787 28.03125 34.107422 C 27.014961 35.478593 25.979034 36.725149 24.947266 37.847656 C 23.916125 36.722751 22.882145 35.473968 21.867188 34.101562 z"/></svg>

<svg xmlns="http://www.w3.org/2000/svg" viewBox="0 0 50 50" fill="white" xmlns:v="https://vecta.io/nano"><path d="M34.555 3.984c-.78-.026-1.596.11-2.414.375-1.637.531-3.351 1.565-5.111 2.996-.69.561-1.386 1.202-2.084 1.883L22.906 7.4c-1.758-1.43-3.469-2.463-5.102-2.992s-3.257-.546-4.592.225-2.132 2.185-2.49 3.863-.32 3.678.039 5.916l.508 2.424-2.189.742c-2.072.809-3.787 1.778-5.035 2.93s-2.055 2.55-2.055 4.086.806 2.932 2.055 4.084S7.008 30.8 9.08 31.609l2.35.789-.697 3.188c-.36 2.24-.398 4.239-.039 5.922s1.157 3.105 2.498 3.879 2.973.755 4.609.225 3.349-1.563 5.109-2.994c.683-.556 1.375-1.19 2.066-1.863l2.076 1.873c1.758 1.43 3.471 2.463 5.104 2.992s3.256.546 4.59-.225 2.132-2.185 2.49-3.863.319-3.678-.041-5.916a32.13 32.13 0 0 0-.699-3.195l2.424-.811c2.072-.809 3.787-1.779 5.035-2.932s2.055-2.549 2.055-4.084-.806-2.934-2.055-4.086-2.963-2.12-5.035-2.93l-2.223-.752.512-2.439c.36-2.24.398-4.241.039-5.924s-1.159-3.103-2.5-3.877c-.67-.387-1.414-.575-2.193-.602zm-.092 2.035c.489.013.907.13 1.264.336.714.412 1.242 1.215 1.523 2.535s.272 3.105-.061 5.174l-.467 2.229c-2.045-.492-4.286-.858-6.674-1.072-1.2-1.662-2.433-3.174-3.676-4.518l1.947-1.76c1.626-1.322 3.165-2.222 4.449-2.639.642-.208 1.204-.299 1.693-.285zm-18.977.006c.492-.014 1.055.076 1.699.285 1.288.418 2.83 1.317 4.457 2.641.624.508 1.263 1.095 1.906 1.721-1.252 1.354-2.494 2.882-3.701 4.559-2.38.219-4.612.588-6.648 1.082l-.463-2.219c-.333-2.071-.341-3.857-.059-5.182s.815-2.131 1.535-2.547c.36-.208.781-.326 1.273-.34zm9.49 6.117l2.438 2.9L25 14.99l-2.461.055 2.438-2.902zM25 17.01l3.975.15 2.58 4.057 1.98 3.752-2.008 3.803-2.012 3.215-4.516.189a54.15 54.15 0 0 1-4.619-.199l-1.979-3.168-2.002-3.793 2.012-3.816 2.568-4.035L25 17.01zm6.551.4a43.08 43.08 0 0 1 4.635.834c-.427 1.401-.954 2.865-1.592 4.375l-1.307-2.402-1.736-2.807zm-13.207.016l-1.699 2.752-1.326 2.434a45 45 0 0 1-1.58-4.35c1.43-.343 2.968-.628 4.605-.836zm19.82 1.35l2.021.684c1.91.746 3.421 1.63 4.4 2.533s1.404 1.766 1.404 2.602-.425 1.698-1.404 2.602-2.49 1.787-4.4 2.533c-.698.273-1.465.52-2.262.754-.569-1.759-1.294-3.594-2.158-5.467.993-2.151 1.795-4.247 2.398-6.24zm-26.361.01c.596 1.973 1.388 4.049 2.367 6.178-.869 1.884-1.599 3.729-2.17 5.498l-2.186-.732c-1.91-.746-3.421-1.63-4.4-2.533S4.01 25.43 4.01 24.594s.425-1.698 1.404-2.602 2.49-1.787 4.4-2.533l1.988-.674zM25 20a5.02 5.02 0 0 0-5 5 5.02 5.02 0 0 0 5 5 5.02 5.02 0 0 0 5-5 5.02 5.02 0 0 0-5-5zm0 2c1.669 0 3 1.331 3 3s-1.331 3-3 3-3-1.331-3-3 1.331-3 3-3zm9.619 5.363l1.363 3.627-3.83.699 1.145-1.896 1.322-2.43zm-19.277.002l1.33 2.443 1.129 1.875-3.818-.701 1.359-3.617zm-1.936 5.559c1.81.429 3.771.758 5.852.973 1.389 2.009 2.835 3.813 4.291 5.391l-1.928 1.744c-1.626 1.322-3.167 2.22-4.451 2.637s-2.243.361-2.957-.051-1.24-1.215-1.521-2.535-.274-3.103.059-5.172c.151-.939.376-1.944.656-2.986zm23.154.008l.66 3.002c.333 2.071.341 3.855.059 5.18s-.813 2.133-1.533 2.549-1.687.472-2.975.055-2.83-1.319-4.457-2.643c-.636-.517-1.286-1.116-1.941-1.756 1.466-1.584 2.922-3.398 4.32-5.418a46 46 0 0 0 5.867-.969zm-14.693 1.17l3.133.094 3.031-.088c-1.016 1.371-2.052 2.618-3.084 3.74a46.2 46.2 0 0 1-3.08-3.746z"/></svg>
